X: 22
T:The High Part of the Road
M:6/8
L:1/8
Q:160
C:unknown
S:played by Sean Ryan
K:G
~B3 ~c3  | ded cAG | ^EFD DED | DGG FGA || BAB cBc |ded   d (3Bcd |
fed  cAF | AGF G2 A |  ~B3     ~c3    | ded cAG | ^EFD DED | DGG FGA |
 BAB cBc | ded d (3Bcd |  fed  cAF |  AGF  G (3Bcd| |:~g3 def | g2 a bag |
 ~f3   d (3efg | afd cAF | ~g3 def |g2 a   bag | fed cAF | AGF G3 :|
